X: 583
T: Morasystern efter Hinspojkarna
S: efter Hinspojkarna
S: Känd genom BOOT
O: Dalarna
N: Hins Anders och Hins Lars?
D: BOOT, Virvla
R: Polska
Z: Håkan Lidén, 2008-09-28
M: 3/4
L: 1/8
K: D
f>e d/c/d/e/ d2 | g>f e/f/e/d/ ef | g>a gf ed | c>d e/g/e/c/ A2 |
f>e d/c/d/e/ d2 | g>f e/f/e/d/ ef | g>a gf ed | cB/c/ d4 :|
|: D/E/F/G/ Ad fa | g/f/g/e/ d2 cB/c/ | d>c B/A/B/c/ dB | A/G/A/B/ AG FE/F/ |
D/E/F/G/ Ad fa | g/f/g/e/ d2 cB/c/ | d>c B/A/B/c/ d>B | (3:2:2c2B A4 :|
(:musicend:)

Annan version. I princip samma fast bak-och-fram, alltså första 
reprisen är andra och andra är första. Kanske mer logiskt
egentligen med tanke på att första reprisen nu slutar på dominanten 
och andra reprisen på tonikan.

(:music:)
